X:21037 
T:CRONIN'S FROLICS 
B:DMI.0338
Z:Nordberg/Black
R:jig
%Q:1/4=160
M:6/8
L:1/8
K:D
G|FEF AFD|dcd ecA|fed gec|dcd ecA|
FEF AFA|dfa ece|fed gec|Add d2:|
c|ecA efg|afd bge|afd gec|dfd ecA|
FEF AFA|dfa ecA|faf gec|edd d2:|
g|afd dgf|ecA Afg|afd Bgf|efd cBA|
afd dcd|gfg ece|fed gec|edd d2:|
B|AFD DFA|dcd AFD|AFD DEF|GBG EFG|
ABA DFA|dfa ece|faf gec|edd d2:|

%%%

